X:336
Z:Erik Ronström 2008-01-26: Titel: Spelmannen spelar
Z:Erik Ronström 2008-01-26: Uppenbart tryckfel i 4:e takten
T:
R:polska
S:Efter »Florsen» i Burs.
O:Gotland, Burs
M:3/4
L:1/16
K:Dm
(AB)A^G LA4 L^c4|(de)d^c Ld4 Le4|f2ef g2f2e2d2|d2^cd e[de8]^c=B A4|
w:Spel--man-nen spe-lar al--la skall dan-sa etc.
ABA^G LA4 L^c4|ded^c Ld4 Le4|f2ef g2f2e2d2|fed^c ^c4 d4::
a3a g4e4|gfef d4 ^c4|A2AA A2=B2^c2d2|e2fe d6 z2:|

